X:45
T:Nottingham Races
S:John Moore's Book 1
Z:Transcribed by David Jacobs  April 2021
%%VWML: Moore1-4493-p29-0
F:http://www.vwml.org/record/Moore1/4493/p29
M:2/4
L:1/8
K:D
d/e/f/e/dA|Bcdc BF|G>FED|[cC][dD][eE][AC]|d/e/f/e/ dA|B/c/d/c/ BA|d>cBA|E^GA2:|
|:A/B/c/B/ AB|c/d/e/d/ cd|e>fgf|e/d/c/B/A2|BGdB|Acde|g>fed|Acd2:|
|: "Piano"dcdc|B2Ad|c>ded|gfe2|dcdc|B2Ad|cd f/e/d/c/|d2D2:|]

